symbols/web/newspaper/materialsymbolssharp/newspaper_wght500gradN25_24px.svg

<svg xmlns="http://www.w3.org/2000/svg" height="24" width="24"><path d="M1.925 21.175v-18.3L3.575 4.5 5.25 2.8l1.7 1.7 1.7-1.7 1.675 1.7L12 2.8l1.675 1.7 1.675-1.7 1.7 1.7 1.7-1.7 1.675 1.7 1.65-1.625v18.3Zm2.15-2.15h6.9V12.9h-6.9Zm8.95 0h6.9v-2.05h-6.9Zm0-4.1h6.9V12.9h-6.9Zm-8.95-4.1h15.85V7.9H4.075Z"/></svg>

<svg xmlns="http://www.w3.org/2000/svg" height="24" width="24"><path d="M1.925 21.175V2.875L3.575 4.5L5.25 2.8L6.95 4.5L8.65 2.8L10.325 4.5L12 2.8L13.675 4.5L15.35 2.8L17.05 4.5L18.75 2.8L20.425 4.5L22.075 2.875V21.175ZM4.075 19.025H10.975V12.9H4.075ZM13.025 19.025H19.925V16.975H13.025ZM13.025 14.925H19.925V12.9H13.025ZM4.075 10.825H19.925V7.9H4.075Z"/></svg>
